X:1
T: Edinburgh Ladies' Pipe Band
C:
R:Jig
Q:180
K:D
M:6/8
L:1/16
|:d2f2A2 d2f2a2|g2a2g2 f2e2d2|g2B2B2 B2c2d2|e2f2d2 c2B2A2|d2f2A2 d2f2a2|g2a2g2 f2e2d2|g2B2B2 c4e2|g2f2e2 d4g2|
a2g2a2 f2e2d2|f2a2d2 f2e2d2|g2B2B2 B2c2d2|e2f2d2 c2B2A2|a2g2a2 f2e2d2|f2a2d2 f2e2d2|g2B2B2 c4e2|g2f2e2 d6:|
